v/0.4.11/design-resources/icons/wf_icons/calculator-buttons.svg

<?xml version="1.0" encoding="utf-8"?>
<!-- Generated by IcoMoon.io -->
<!DOCTYPE svg PUBLIC "-//W3C//DTD SVG 1.1//EN" "http://www.w3.org/Graphics/SVG/1.1/DTD/svg11.dtd">
<svg version="1.1" xmlns="http://www.w3.org/2000/svg" xmlns:xlink="http://www.w3.org/1999/xlink" width="512" height="512" viewBox="0 0 512 512">
<g>
</g>
	<path d="M192 0h-160c-17.6 0-32 14.4-32 32v160c0 17.6 14.397 32 32 32h160c17.6 0 32-14.4 32-32v-160c0-17.6-14.4-32-32-32zM192 128h-160v-32h160v32zM480 0h-160c-17.603 0-32 14.4-32 32v448c0 17.6 14.397 32 32 32h160c17.6 0 32-14.4 32-32v-448c0-17.6-14.4-32-32-32zM480 320h-160v-32h160v32zM480 224h-160v-32h160v32zM192 288h-160c-17.6 0-32 14.4-32 32v160c0 17.6 14.397 32 32 32h160c17.6 0 32-14.4 32-32v-160c0-17.6-14.4-32-32-32zM192 416h-64v64h-32v-64h-64v-32h64v-64h32v64h64v32z" fill="#595959" />
</svg>

<svg xmlns="http://www.w3.org/2000/svg" width="512" height="512" viewBox="0 0 512 512"><path stroke="#449FDB" d="M0 0"/><path d="M192 0H32C14.4 0 0 14.4 0 32v160c0 17.6 14.397 32 32 32h160c17.6 0 32-14.4 32-32V32c0-17.6-14.4-32-32-32zm0 128H32V96h160v32zM480 0H320c-17.603 0-32 14.4-32 32v448c0 17.6 14.397 32 32 32h160c17.6 0 32-14.4 32-32V32c0-17.6-14.4-32-32-32zm0 320H320v-32h160v32zm0-96H320v-32h160v32zm-288 64H32c-17.6 0-32 14.4-32 32v160c0 17.6 14.397 32 32 32h160c17.6 0 32-14.4 32-32V320c0-17.6-14.4-32-32-32zm0 128h-64v64H96v-64H32v-32h64v-64h32v64h64v32z" fill="#595959"/></svg>
